app/public/images/twitter.svg

<svg xmlns="http://www.w3.org/2000/svg" viewBox="-17 -20 70 70"><path d="M34.317 8.819c0 10.404-7.919 22.4-22.4 22.4-4.445 0-8.584-1.303-12.07-3.537.613.068 1.243.111 1.878.111 3.689 0 7.083-1.26 9.779-3.373-3.449-.061-6.354-2.34-7.357-5.467.481.092.975.143 1.478.143.72 0 1.416-.098 2.075-.277-3.602-.727-6.317-3.905-6.317-7.723v-.098c1.062.588 2.277.942 3.567.982-2.112-1.412-3.5-3.824-3.5-6.554 0-1.442.388-2.793 1.066-3.956 3.88 4.763 9.683 7.896 16.227 8.224-.136-.574-.202-1.178-.202-1.795 0-4.344 3.524-7.869 7.87-7.869 2.266 0 4.313.956 5.749 2.483 1.791-.351 3.478-1.006 4.999-1.909-.589 1.837-1.838 3.38-3.461 4.354 1.591-.188 3.106-.611 4.52-1.24-1.053 1.587-2.386 2.973-3.926 4.083 0 0 .025.677.025 1.018z" fill="#FFF"/></svg>

<svg xmlns="http://www.w3.org/2000/svg" xmlns:xlink="http://www.w3.org/1999/xlink" viewBox="-17 -20 70 70" xml:space="preserve"><g fill='#FFF'><path d="M34.317,8.819 C34.317,19.223 26.398,31.219 11.917,31.219 C7.472,31.219 3.333,29.916 -0.153,27.682 C0.46,27.75 1.09,27.793 1.725,27.793 C5.414,27.793 8.808,26.533 11.504,24.42 C8.055,24.359 5.15,22.08 4.147,18.953 C4.628,19.045 5.122,19.096 5.625,19.096 C6.345,19.096 7.041,18.998 7.7,18.819 C4.098,18.092 1.383,14.914 1.383,11.096 L1.383,10.998 C2.445,11.586 3.66,11.94 4.95,11.98 C2.838,10.568 1.45,8.156 1.45,5.426 C1.45,3.984 1.838,2.633 2.516,1.47 C6.396,6.233 12.199,9.366 18.743,9.694 C18.607,9.12 18.541,8.516 18.541,7.899 C18.541,3.555 22.065,0.03 26.411,0.03 C28.677,0.03 30.724,0.986 32.16,2.513 C33.951,2.162 35.638,1.507 37.159,0.604 C36.57,2.441 35.321,3.984 33.698,4.958 C35.289,4.77 36.804,4.347 38.218,3.718 C37.165,5.305 35.832,6.691 34.292,7.801 C34.292,7.801 34.317,8.478 34.317,8.819 Z"/></g></svg>
